svgs/regular/building-lock.svg

<svg xmlns="http://www.w3.org/2000/svg" viewBox="0 0 576 512"><!--! Font Awesome Pro 6.6.0 by @fontawesome - https://fontawesome.com License - https://fontawesome.com/license (Commercial License) Copyright 2024 Fonticons, Inc. --><path d="M64 48l256 0c8.8 0 16 7.2 16 16l0 245.7c4.6-5.2 10-9.6 16-13.1l0-24.6c0-30.5 12.2-58.2 32-78.4L384 64c0-35.3-28.7-64-64-64L64 0C28.7 0 0 28.7 0 64L0 448c0 35.3 28.7 64 64 64l256 0c2.8 0 5.6-.2 8.3-.5c-5.3-9.3-8.3-20-8.3-31.5l0-16-80 0 0-64c0-26.5-21.5-48-48-48s-48 21.5-48 48l0 64-80 0c-8.8 0-16-7.2-16-16L48 64c0-8.8 7.2-16 16-16zm24 56l0 48c0 8.8 7.2 16 16 16l48 0c8.8 0 16-7.2 16-16l0-48c0-8.8-7.2-16-16-16l-48 0c-8.8 0-16 7.2-16 16zM232 88c-8.8 0-16 7.2-16 16l0 48c0 8.8 7.2 16 16 16l48 0c8.8 0 16-7.2 16-16l0-48c0-8.8-7.2-16-16-16l-48 0zM88 232l0 48c0 8.8 7.2 16 16 16l48 0c8.8 0 16-7.2 16-16l0-48c0-8.8-7.2-16-16-16l-48 0c-8.8 0-16 7.2-16 16zm144-16c-8.8 0-16 7.2-16 16l0 48c0 8.8 7.2 16 16 16l48 0c8.8 0 16-7.2 16-16l0-48c0-8.8-7.2-16-16-16l-48 0zm232 24c17.7 0 32 14.3 32 32l0 48-64 0 0-48c0-17.7 14.3-32 32-32zm-80 32l0 48c-17.7 0-32 14.3-32 32l0 128c0 17.7 14.3 32 32 32l160 0c17.7 0 32-14.3 32-32l0-128c0-17.7-14.3-32-32-32l0-48c0-44.2-35.8-80-80-80s-80 35.8-80 80z"/></svg>

<svg xmlns="http://www.w3.org/2000/svg" viewBox="0 0 576 512"><!--! Font Awesome Pro 6.5.2 by @fontawesome - https://fontawesome.com License - https://fontawesome.com/license (Commercial License) Copyright 2024 Fonticons, Inc. --><path d="M64 48H320c8.8 0 16 7.2 16 16V309.7c4.6-5.2 10-9.6 16-13.1V272c0-30.5 12.2-58.2 32-78.4V64c0-35.3-28.7-64-64-64H64C28.7 0 0 28.7 0 64V448c0 35.3 28.7 64 64 64H320c2.8 0 5.6-.2 8.3-.5c-5.3-9.3-8.3-20-8.3-31.5V464H240V400c0-26.5-21.5-48-48-48s-48 21.5-48 48v64H64c-8.8 0-16-7.2-16-16V64c0-8.8 7.2-16 16-16zm24 56v48c0 8.8 7.2 16 16 16h48c8.8 0 16-7.2 16-16V104c0-8.8-7.2-16-16-16H104c-8.8 0-16 7.2-16 16zM232 88c-8.8 0-16 7.2-16 16v48c0 8.8 7.2 16 16 16h48c8.8 0 16-7.2 16-16V104c0-8.8-7.2-16-16-16H232zM88 232v48c0 8.8 7.2 16 16 16h48c8.8 0 16-7.2 16-16V232c0-8.8-7.2-16-16-16H104c-8.8 0-16 7.2-16 16zm144-16c-8.8 0-16 7.2-16 16v48c0 8.8 7.2 16 16 16h48c8.8 0 16-7.2 16-16V232c0-8.8-7.2-16-16-16H232zm232 24c17.7 0 32 14.3 32 32v48H432V272c0-17.7 14.3-32 32-32zm-80 32v48c-17.7 0-32 14.3-32 32V480c0 17.7 14.3 32 32 32H544c17.7 0 32-14.3 32-32V352c0-17.7-14.3-32-32-32V272c0-44.2-35.8-80-80-80s-80 35.8-80 80z"/></svg>
